!!!OTL: DER MENSCH SOLL NICHT STOLZ SEIN
!!!ARE: Europa, Mitteleuropa, Deutschland, Rheinland; Nassau; Wetterau
!!!SCT: B0673
!!!YEM: Copyright 1995, estate of Helmut Schaffrath.
**kern
*ICvox
*Ivox
*M3/4
*k[b-e-]
*B-:
{4d
=1
4f
4.f
8f
=2
4g
4.g
8f
=3
4e-
4e-
4g
=4
4f
4r}
{8f
8a
=5
4.b-
8cc
4dd
=6
4cc
4cc
8f
8a
=7
4.b-
8cc
4dd
=8
4cc
4r}
{4f
=9
4dd
4.cc
8b-
=10
4a
4.g
8g
=11
4f
4f
4e-
=12
4d
4r}
{4f
=13
4ee-
4dd
4cc
=14
4b-
4.a
8g
=15
4f
4f
4e-
=16
4d
4r}
{4f
=17
4dd
4.cc
8b-
=18
4a
4.g
8g
=19
4f
4f
4e-
=20
4d
4r}
{4f
=21
4ee-
4dd
4cc
=22
4b-
4.a
8g
=23
4f
4f
4e-
=24
4d
4r}
==
!!!AGN: Moral - Lied, Vergaenglichkeit
!!!ONB: ESAC (Essen Associative Code) Database: BOEHME
!!!AMT: simple triple
!!!AIN: vox
!!!EED: Helmut Schaffrath
!!!EEV: 1.0
*-
